actions/22/go-next.svg

<svg xmlns="http://www.w3.org/2000/svg" viewBox="0 0 22 22">
  <defs id="defs3051">
    <style type="text/css" id="current-color-scheme">
      .ColorScheme-Text {
        color:#808080;
      }
      </style>
  </defs>
 <path 
    style="fill:currentColor;fill-opacity:1;stroke:none" 
	d="m7.707031 3l-.707031.707031 6.125 6.125 1.167969 1.167969-1.167969 1.167969-6.125 6.125.707031.707031 6.125-6.125 1.875-1.875-1.875-1.875-6.125-6.125"
    class="ColorScheme-Text"
    />  
</svg>

<svg xmlns="http://www.w3.org/2000/svg" version="1.1" viewBox="0 0 22 22">
 <defs>
  <style id="current-color-scheme" type="text/css">
   .ColorScheme-Text { color:#808080; }
  </style>
 </defs>
 <path class="ColorScheme-Text" d="M 7.707,3 7,3.707 13.125,9.832 14.293,11 13.125,12.168 7,18.293 7.707,19 13.832,12.875 15.707,11 13.832,9.125 7.707,3" style="color:#808080;fill:currentColor"/>
</svg>
